app/assets/images/heroicon/solid/stop-circle.svg

<svg width="24" height="24" viewBox="0 0 24 24" fill="none" xmlns="http://www.w3.org/2000/svg">
<path fill-rule="evenodd" clip-rule="evenodd" d="M2.25 12C2.25 6.61522 6.61522 2.25 12 2.25C17.3848 2.25 21.75 6.61522 21.75 12C21.75 17.3848 17.3848 21.75 12 21.75C6.61522 21.75 2.25 17.3848 2.25 12ZM8.25 9.5625C8.25 8.83763 8.83763 8.25 9.5625 8.25H14.4375C15.1624 8.25 15.75 8.83763 15.75 9.5625V14.4375C15.75 15.1624 15.1624 15.75 14.4375 15.75H9.5625C8.83763 15.75 8.25 15.1624 8.25 14.4375V9.5625Z" fill="#0F172A"/>
</svg>

<svg xmlns="http://www.w3.org/2000/svg" viewBox="0 0 24 24" fill="currentColor" aria-hidden="true">
  <path fill-rule="evenodd" d="M2.25 12c0-5.385 4.365-9.75 9.75-9.75s9.75 4.365 9.75 9.75-4.365 9.75-9.75 9.75S2.25 17.385 2.25 12zm6-2.438c0-.724.588-1.312 1.313-1.312h4.874c.725 0 1.313.588 1.313 1.313v4.874c0 .725-.588 1.313-1.313 1.313H9.564a1.312 1.312 0 01-1.313-1.313V9.564z" clip-rule="evenodd"/>
</svg>
